ir/pen-connect-bluetooth.svg

<svg stroke-width="1.5" viewBox="0 0 24 24" fill="none" xmlns="http://www.w3.org/2000/svg" height="1em" width="1em">
  <g clip-path="url(#a)">
    <path d="M6.50006 17.4999L5.5 21.5L9.23128 20.5672C9.40711 20.5232 9.56769 20.4323 9.69585 20.3041L21.5 8.5C22.3284 7.67157 22.3284 6.32843 21.5 5.5V5.5C20.6716 4.67157 19.3284 4.67157 18.5 5.5L14.5 9.5" stroke="currentColor" stroke-linecap="round" stroke-linejoin="round"/>
    <path d="M17.5 6.5L20.5 9.5" stroke="currentColor" stroke-linecap="round" stroke-linejoin="round"/>
    <path d="M5 6.6L12 11.7L8.33333 15V3L12 6.3L5 11.4" stroke="currentColor" stroke-linecap="round" stroke-linejoin="round"/>
  </g>
  <defs>
    <clipPath id="a">
      <rect width="24" height="24" stroke-width="1.5" fill="white"/>
    </clipPath>
  </defs>
</svg>

<svg stroke-width="1.5" viewBox="0 0 24 24" fill="none" xmlns="http://www.w3.org/2000/svg" height="1em" width="1em">
  <g clip-path="url(#a)" stroke="currentColor" stroke-linecap="round" stroke-linejoin="round">
    <path d="m6.5 17.5-1 4 3.731-.933a1 1 0 0 0 .465-.263L21.5 8.5a2.121 2.121 0 0 0 0-3v0a2.121 2.121 0 0 0-3 0l-4 4m3-3 3 3M5 6.6l7 5.1L8.333 15V3L12 6.3l-7 5.1"/>
  </g>
  <defs>
    <clipPath id="a">
      <path fill="#fff" d="M0 0h24v24H0z"/>
    </clipPath>
  </defs>
</svg>
